icon-svg/salt-lamp.svg

<svg xmlns="http://www.w3.org/2000/svg" viewBox="0 0 24 24"><path fill="#44739e" d="M5.224 8.688c-1.081-3.112-.371-3.3 1.943-5.153.643-.395 1.221-.913 1.866-1.27a17 17 0 0 1 5.975 0c1.031 0 1.172 1.275 1.868 1.868.59 1.174 2.079 2.063 1.269 3.734 1.828.921 1.9 3.143 1.494 4.7a8.6 8.6 0 0 1-.523 3.137 27 27 0 0 1-2.314 2.994c-.526.391.3 1.839-.374 2.539-2.309.791-7.119 1.444-9.186-.6-.3-1.209.242-1.757-.9-2.838-1.333-1.612-2.529-3.432-2.092-5.678.173-1.167-.336-2.961.972-3.436m-.22-2.909c-.039 1.137 1.3 2.615.15 3.435-.1.147-.313.228-.224.523-.309 2.529-.701 4.969 1.045 6.722 1.756 3.91 5.923 3.591 9.635 2.914.394-.216.682-.118.747-.747.486-.472.667-1.2 1.269-1.644.537-.965 1.795-1.642 1.419-3.062.176-2.043 1.013-4.461-1.269-5.826.067-1.067.469-1.886-.6-2.539a21 21 0 0 0-1.272-1.793c-.014-1.846-6.267-1.576-7.1-.748-1.342.795-2.327 2.067-3.8 2.765m4.33-2.764a1.21 1.21 0 0 1-.747 1.121c.067-.45.243-1.28.747-1.121m5.9.6h-.3c-.266-.457.4-.5.3 0m.224.6c.287-.015.929 1.025.374.971a1.07 1.07 0 0 1-.374-.976Zm-6.871.15c-.17 1.376-1 2.007.374 2.912-2.1.204-1.403-2.377-.374-2.917Zm3.66 1.493c-.442-.009-.617-.363-.822-.672.182-.635.8.218.822.672m2.987 1.27c-.106-.951 1.547-2.87.822-.821-.219.143-.335.841-.822.816Zm-1.941.072c.564-.022.635.679-.075.6-.157-.2-.23-.444.075-.6m-2.316 1.417c-.873.092-2.784-1.847-1.273-1.117.42.2 1.19.567 1.273 1.117m3.062-.6c.32-.035.6.013.673.374-.28.249-.662.115-.673-.374m-2.166 1.347c-.429.067-.62-.392-.746-.673.363.072.683.156.746.673m4.93 5.377c.626-.1.415 1.007 0 .3a12.2 12.2 0 0 0-1.867-1.718c-2.872-2.177-1.895-1.615-.448-4.631a5.1 5.1 0 0 1-.3 1.793c-1.708 1.8 2.113 2.506 2.614 4.257m-10.9-5.6c3.525.491.143 2.935 4.258 5.526.41.29.984.366 1.2.971-1.34-.074-2.5-1.441-3.66-2.539-.669-.944.432-3.449-1.569-3.51-.062-.227-.427-.132-.233-.45Zm11.951 2.016c-.59-.07-.981-.869-1.42-1.2-.54-1.254 1.487.438 1.42 1.2m-9.561.15c-.3.08-.4-.164-.224-.374.236.03.236.166.22.372Zm9.486 0c.416.034.413.691-.075.6-.131-.331-.058-.349.075-.6m-6.2.149c.51.125.36 1.965.224 2.465-.662-.122-.347-2.027-.224-2.465m-3.588.143c.386-.04.342.369 0 .3Zm9.933.747c.354-.086.3.261.3.523-.392.241-.434-.233-.3-.523m-10.456.6c.24.416-2.2.858-2.39.3a6.3 6.3 0 0 1 2.39-.298Zm4.332.971c.341-.1 1.313.759 1.2 1.12-.419.094-1.217-.716-1.195-1.118Zm-5.378.9c.834.229.561 1.247 1.793 1.045 1.183 1.018-2.019.553-1.793-1.045m6.946.3c.289-.024.505-.009.523.373-.289.024-.5.009-.523-.373m-1.344 1.192c-.332.026-.525 0-.523-.449.362-.162.538-.035.523.449m2.987 1.791a5.2 5.2 0 0 1 1.2-2.242c-.091.731-.421 1.978-1.2 2.242m-6.2-1.793c.335-.01.738 0 .747.448-.323.166-.888-.008-.747-.448m1.794 2.393c1.715 1.116-1.818.184-.149-2.168.846-.454.021 1.576.149 2.168m1.494-2.167c.257-.035.332.082.373.373-.276.164-.539-.033-.373-.373m-.075 2.914c-.294.032-.583.01-.523-.374.3-.182.563.032.523.374m-4.407-.075c-.482 3.051 5.422 1.958 7.544 1.867.864-.105 1.54-.707 1.12-1.718a17 17 0 0 1-1.718.523 10.7 10.7 0 0 1-6.946-.672m.224.672c.444.015 1.22.124 1.046.448-.252.185-1.34.112-1.046-.448m1.27.672c-.179-.566.705-.363.448-.074.089.148-.412.046-.448.074m1.12 0c-.187-.013-.459.077-.373-.224.162-.121.441-.114.373.224m4.258-.224c.233-.041.392.035.373.3-.274.149-.559.043-.373-.3m-3.511.15c.421-.024 3.094-.379 2.988.149-.276.239-2.951.582-2.988-.149"/></svg>

<svg xmlns="http://www.w3.org/2000/svg" width="24" height="24" viewBox="0 0 24 24">
  <path id="Colore_riempimento_1" fill="#44739e"  data-name="Colore riempimento 1" class="cls-1" d="M 5.222,8.691 C 4.142,5.579 4.851,5.391 7.165,3.538 7.808,3.143 8.386,2.625 9.031,2.268 a 16.949,16.949 0 0 1 5.975,0 c 1.031,0 1.172,1.275 1.868,1.868 0.59,1.174 2.079,2.063 1.269,3.734 1.828,0.921 1.9,3.143 1.494,4.7 A 8.58,8.58 0 0 1 19.114,15.707 26.987,26.987 0 0 1 16.8,18.7 c -0.526,0.391 0.3,1.839 -0.374,2.539 C 14.117,22.03 9.307,22.683 7.24,20.639 6.94,19.43 7.482,18.882 6.34,17.801 5.007,16.19 3.812,14.37 4.249,12.124 4.422,10.957 3.913,9.163 5.22,8.688 M 5,5.779 C 4.961,6.916 6.3,8.394 5.15,9.214 5.05,9.361 4.837,9.442 4.926,9.737 c -0.308,2.529 -0.7,4.969 1.045,6.722 1.756,3.909 5.923,3.59 9.635,2.913 0.394,-0.216 0.682,-0.118 0.747,-0.747 0.486,-0.472 0.667,-1.2 1.269,-1.643 0.537,-0.965 1.795,-1.642 1.419,-3.062 0.176,-2.043 1.013,-4.461 -1.269,-5.826 0.067,-1.067 0.469,-1.886 -0.6,-2.539 A 20.724,20.724 0 0 0 15.9,3.762 C 15.886,1.916 9.633,2.186 8.8,3.014 7.458,3.809 6.473,5.081 5,5.779 M 9.33,3.015 A 1.214,1.214 0 0 1 8.583,4.136 C 8.65,3.686 8.826,2.856 9.33,3.015 Z m 5.9,0.6 h -0.3 c -0.266,-0.457 0.4,-0.5 0.3,0 m 0.224,0.6 C 15.741,4.2 16.383,5.24 15.828,5.186 A 1.066,1.066 0 0 1 15.454,4.21 Z m -6.871,0.15 c -0.17,1.376 -1,2.007 0.374,2.912 C 6.857,7.481 7.554,4.9 8.583,4.36 Z m 3.66,1.493 C 11.801,5.849 11.626,5.495 11.421,5.186 c 0.182,-0.635 0.8,0.218 0.822,0.672 m 2.987,1.27 C 15.124,6.177 16.777,4.258 16.052,6.307 15.833,6.45 15.717,7.148 15.23,7.123 Z M 13.289,7.2 C 13.853,7.178 13.924,7.879 13.214,7.8 13.057,7.6 12.984,7.356 13.289,7.2 M 10.973,8.617 C 10.1,8.709 8.189,6.77 9.7,7.5 c 0.42,0.2 1.19,0.567 1.273,1.117 z m 3.062,-0.6 c 0.32,-0.035 0.6,0.013 0.673,0.374 -0.28,0.249 -0.662,0.115 -0.673,-0.374 m -2.166,1.347 c -0.429,0.067 -0.62,-0.392 -0.746,-0.673 0.363,0.072 0.683,0.156 0.746,0.673 m 4.93,5.377 c 0.626,-0.1 0.415,1.007 0,0.3 A 12.237,12.237 0 0 0 14.932,13.323 C 12.06,11.146 13.037,11.708 14.484,8.692 a 5.09,5.09 0 0 1 -0.3,1.793 c -1.708,1.8 2.113,2.506 2.614,4.257 m -10.9,-5.6 c 3.525,0.491 0.143,2.935 4.258,5.526 0.41,0.29 0.984,0.366 1.2,0.971 C 10.016,15.565 8.856,14.198 7.696,13.1 7.027,12.156 8.128,9.651 6.127,9.59 6.065,9.363 5.7,9.458 5.894,9.14 Z m 11.951,2.016 c -0.59,-0.07 -0.981,-0.869 -1.42,-1.2 -0.54,-1.254 1.487,0.438 1.42,1.2 m -9.561,0.15 c -0.3,0.08 -0.4,-0.164 -0.224,-0.374 0.236,0.03 0.236,0.166 0.22,0.372 z m 9.486,0 c 0.416,0.034 0.413,0.691 -0.075,0.6 -0.131,-0.331 -0.058,-0.349 0.075,-0.6 m -6.2,0.149 c 0.51,0.125 0.36,1.965 0.224,2.465 C 11.136,13.8 11.451,11.895 11.574,11.457 M 7.986,11.6 c 0.386,-0.04 0.342,0.369 0,0.3 z m 9.933,0.747 c 0.354,-0.086 0.3,0.261 0.3,0.523 -0.392,0.241 -0.434,-0.233 -0.3,-0.523 m -10.456,0.6 c 0.24,0.416 -2.2,0.858 -2.39,0.3 a 6.282,6.282 0 0 1 2.39,-0.298 z m 4.332,0.971 c 0.341,-0.1 1.313,0.759 1.2,1.12 -0.419,0.094 -1.217,-0.716 -1.195,-1.118 z m -5.378,0.9 c 0.834,0.229 0.561,1.247 1.793,1.045 1.183,1.018 -2.019,0.553 -1.793,-1.045 m 6.946,0.3 c 0.289,-0.024 0.505,-0.009 0.523,0.373 -0.289,0.024 -0.5,0.009 -0.523,-0.373 m -1.344,1.192 c -0.332,0.026 -0.525,0 -0.523,-0.449 0.362,-0.162 0.538,-0.035 0.523,0.449 m 2.987,1.79 a 5.208,5.208 0 0 1 1.2,-2.241 c -0.091,0.731 -0.421,1.977 -1.2,2.241 z m -6.2,-1.792 c 0.335,-0.01 0.738,0 0.747,0.448 C 9.23,16.922 8.665,16.748 8.806,16.308 M 10.6,18.7 c 1.715,1.116 -1.818,0.184 -0.149,-2.167 0.846,-0.454 0.021,1.575 0.149,2.167 m 1.494,-2.166 c 0.257,-0.035 0.332,0.082 0.373,0.373 -0.276,0.164 -0.539,-0.033 -0.373,-0.373 m -0.075,2.913 c -0.294,0.032 -0.583,0.01 -0.523,-0.374 0.3,-0.182 0.563,0.032 0.523,0.374 M 7.612,19.372 c -0.482,3.051 5.422,1.958 7.544,1.867 0.864,-0.105 1.54,-0.707 1.12,-1.718 a 16.933,16.933 0 0 1 -1.718,0.523 10.7,10.7 0 0 1 -6.946,-0.672 z m 0.224,0.672 c 0.444,0.015 1.22,0.124 1.046,0.448 -0.252,0.185 -1.34,0.112 -1.046,-0.448 m 1.27,0.672 C 8.927,20.15 9.811,20.353 9.554,20.642 9.643,20.79 9.142,20.688 9.106,20.716 Z m 1.12,0 c -0.187,-0.013 -0.459,0.077 -0.373,-0.224 0.162,-0.121 0.441,-0.114 0.373,0.224 z m 4.258,-0.224 c 0.233,-0.041 0.392,0.035 0.373,0.3 -0.274,0.149 -0.559,0.043 -0.373,-0.3 m -3.511,0.15 c 0.421,-0.024 3.094,-0.379 2.988,0.149 -0.276,0.239 -2.951,0.582 -2.988,-0.149 z"/>
</svg>
